X:1
T:Sochi, 11.11.11.11 D
T:Sochi, 11.11.11.11 D
T:William James Kirkpatrick, 1882
T:Public Domain Courtesy of the Cyber Hymnal™
C:William James Kirkpatrick, 1882
Z:Public Domain
Z:Courtesy of the Cyber Hymnal™
%%score ( 1 2 ) ( 3 4 )
L:1/8
Q:1/4=93
M:4/4
K:G
V:1 treble 
V:2 treble 
V:3 bass 
V:4 bass 
V:1
 [DB][DB][DB][DB] [B,G][B,D][CE][CF] | [DG]2 [DA]2 [DB]4 | [DA][DA][DA][DA] [DF]D[DF][FA] | %3
 [EG]2 [^CE]2 D4 | [DB][DB][DB][DB] [B,G][B,D][CE][CF] | [DG]2 [DA]2 [DB]4 | %6
 [Ec][Ec][DA][DA] [Ec][Ec][DG][DG] | [EA]2 [DF]2 !fermata![DG]4 | [Gd][Gd][Gd][Gd] [GB]G[GA][GB] | %9
 [Gc]2 [Ge]2 [Gd]4 | [Gd][Gd][Gd][Gd] [GB][DG][GB][Gd] | [Fc]2 [GB]2 [DA]4 | %12
 [DB][DB][DB][DB] [B,G][B,D][CE][CF] | [DG]2 [DA]2 [DB]4 | [Ec][Ec][DA][DA] [Ec][Ec][DG][DG] | %15
 [EA]2 [DF]2 !fermata![DG]4 |] %16
V:2
 x8 | x8 | x5 D x2 | x4 D4 | x8 | x8 | x8 | x8 | x5 G x2 | x8 | x8 | x8 | x8 | x8 | x8 | x8 |] %16
V:3
 [G,,G,][G,,G,][G,,G,][G,,G,] [G,,G,][G,,G,][C,G,][C,A,] | [B,,G,]2 [D,F,]2 [G,,G,]4 | %2
 [D,F,][D,F,][D,F,][D,F,] [D,A,][D,F,][D,A,][D,A,] | [G,,B,]2 (A,G,) [D,F,]4 | %4
 [G,,G,][G,,G,][G,,G,][G,,G,] [G,,G,][G,,G,][C,G,][C,A,] | [B,,G,]2 [D,F,]2 [G,,G,]4 | %6
 [C,G,][C,G,][D,F,][D,F,] G,G,[B,,D][B,,D] | [C,C]2 [D,A,]2 !fermata![G,,B,]4 | %8
 [G,B,][G,B,][G,B,][G,B,] [G,D][G,B,][G,C][G,D] | [C,E]2 [C,C]2 [G,B,]4 | %10
 [G,B,][G,B,][G,B,][G,B,] [G,D][G,B,][G,D][G,B,] | [D,A,]2 [D,G,]2 [D,F,]4 | %12
 [G,,G,][G,,G,][G,,G,][G,,G,] [G,,G,][G,,G,][C,G,][C,A,] | [B,,G,]2 [D,F,]2 [G,,G,]4 | %14
 [C,G,][C,G,][D,F,][D,F,] G,G,[B,,D][B,,D] | [C,C]2 [D,A,]2 !fermata![G,,B,]4 |] %16
V:4
 x8 | x8 | x8 | x2 A,,2 x4 | x8 | x8 | x4 G,G, x2 | x8 | x8 | x8 | x8 | x8 | x8 | x8 | x4 G,G, x2 | %15
 x8 |] %16

